X:1
T:I have ere this time heard - Whythorne
T:#
%%score [ 1 2 3 4 ]
L:1/8
Q:1/4=140
M:3/2
K:C
V:1 treble nm="Soprano" snm="S"
V:2 treble nm="Alto" snm="A"
V:3 treble-8 nm="Tenor" snm="T"
V:4 treble nm="Bass" snm="B"
V:1
 z6 | z6 | z6 | z6 | z6 | z6 | z6 | z6 ||[K:Bb][M:3/4][K:treble] B2 A2 B2 | G3 F B2 | G3 A B2 | %11
w: ||||||||I have ere|this time heard|ma- ny one|
 A6 |: B2 A2 G2 | F3 A A2 | G3 B A2 | B6 :|[M:3/4] z6 | z6 | z6 | z6 | z6 | z6 | z6 |[M:3/4] z6 | %24
w: say:|Take time while|time is, for|time will a-|way.|||||||||
 z6 | z6 | z6 | z6 | z6 |[M:3/4] z6 | z6 | z6 | F2 A2 B2 | c3 B A2 | B3 B A2 | B6 ||[M:3/4] z6 | %37
w: ||||||||Lest they be|far off when|they would be|sped.||
 z6 | z6 | z6 | z6 | z6 | z6 | z6 |[M:3/4] B2 A2 B2 | G3 F B2 | G3 A B2 | A6 | %48
w: |||||||I have ere|this time heard|ma- ny one|say:|
[Q:1/4=138] B2[Q:1/4=136] A2[Q:1/4=134] G2 |[Q:1/4=131] F3[Q:1/4=129] A[Q:1/4=127] A2 | %50
w: Take time while|time is, for|
[Q:1/4=124] G3[Q:1/4=122] B[Q:1/4=121] A2 |[Q:1/4=120] B6 |] %52
w: time will a-|way.|
V:2
[K:Bb]"^I have ere this time heard" B,2 C2 D2 | E3 D G2 | E3 F D2 | C6 | G2 F2 E2 | D3 E F2 | %6
w: I have ere|this time heard|ma- ny one|say:|Take time while|time is, for|
 E3 D"^Thomas Whythorne\n(1528-1595)" C2 | B,6 ||[M:3/4] F2 F2 D2 | E3 B, F2 | E3 E D2 | F6 |: %12
w: time will a-|way.|I have ere|this time heard|ma- ny one|say:|
 F2 E2 E2 | C3 F F2 | E3 D F2 | D6 :| F2 G2 G2 | A3 G F2 | G2 =E2 E2 | F6 | F2 E2 D2 | G3 F E2 | %22
w: Take time while|time is, for|time will a-|way.|Who\-so * that|great af- fairs|have to be|done,|Which at their|own will they|
 D3 C B,2 | A,6 | F2 B2 A2 | G3 G F2 | E2 D2 C2 | D6 | F2 A2 B2 | c3 B A2 | B3 A G2 | A6 | %32
w: may des- patch|soon,|Let no de-|fer- ings of|time be us-|ed,|Lest they be|far off when|they would be|sped,|
 F2 F2 F2 | G3 F F2 | F3 G F2 | F6 || B,2 C2 D2 | E3 D G2 | E3 F D2 | C6 | G2 F2 E2 | D3 E F2 | %42
w: Lest they be|far off when|they would be|sped.|I have ere|this time heard|ma- ny one|say:|Take time while|time is, for|
 E3 D C2 | B,6 | F2 F2 D2 | E3 B, F2 | E3 E D2 | F6 | F2 E2 E2 | C3 F F2 | E3 D F2 | D6 |] %52
w: time will a-|way.|I have ere|this time heard|ma- ny one|say:|Take time while|time is, for|time will a-|way.|
V:3
[K:Bb] B2 A2 B2 | E3 B G2 | c3 d =B2 | c6 | e2 d2 c2 | =B3 c d2 | c3 _B A2 | B6 || %8
w: I have ere|this time heard|ma- ny one|say:|Take time while|time is, for|time will a-|way.|
[M:3/4][K:treble-8] d2 c2 B2 | B3 B d2 | B3 c B2 | c6 |: d2 c2 B2 | A3 c d2 | B3 B c2 | B6 :| %16
w: I have ere|this time heard|ma- ny one|say:|Take time while|time is, for|time will a-|way.|
 B2 B2 G2 | F3 G A2 | B2 c2 c2 | F6 | d2 c2 B2 | B3 A G2 | F3 A G2 | F6 | d2 B2 c2 | e3 e d2 | %26
w: Who- so that|great af- fairs|have to be|done,|Which at their|own will they|may des- patch|soon,|Let no de-|fer- ings of|
 c2 B2 A2 | B6 | d2 c2 B2 | A3 B c2 | B2 e3 d | c6 | A2 c2 d2 | e3 d c2 | d3 e c2 | d6 || %36
w: time be us-|ed,|Lest they be|far off when|they would be|sped,|Lest they be|far off when|they would be|sped.|
 B2 A2 B2 | E3 B G2 | c3 d =B2 | c6 | e2 d2 c2 | =B3 c d2 | c3 _B A2 | B6 | d2 c2 B2 | B3 B d2 | %46
w: I have ere|this time heard|ma- ny one|say:|Take time while|time is, for|time will a-|way.|I have ere|this time heard|
 B3 c B2 | c6 | d2 c2 B2 | A3 c d2 | B3 B c2 | B6 |] %52
w: ma- ny one|say:|Take time while|time is, for|time will a-|way.|
V:4
 z6 | z6 | z6 | z6 | z6 | z6 | z6 | z6 ||[K:Bb][M:3/4][K:bass] B,2 F,2 G,2 | E,3 D, B,,2 | %10
w: ||||||||I have ere|this time heard|
 E,3 C, G,2 | F,6 |: B,,2 (C,D,) E,2 | F,3 F, D,2 | E,3 G, F,2 | B,,6 :|[M:3/4] z6 | z6 | z6 | z6 | %20
w: ma- ny one|say:|Take time * while|time is, for|time will a-|way.|||||
 z6 | z6 | z6 |[M:3/4] z6 | B,2 G,2 F,2 | E,3 E, B,,2 | C,2 (D,E,) F,2 | B,,6 | B,2 A,2 G,2 | %29
w: ||||Let no de-|fer- ings of|time be * us-|ed,|Lest they be|
 F,3 G, F,2 | G,3 F, E,2 | F,6 | F,2 F,2 D,2 | C,3 D, F,2 | B,3 E, F,2 | B,,6 ||[M:3/4] z6 | z6 | %38
w: far off when|they would be|sped,|Lest they be|far off when|they would be|sped.|||
 z6 | z6 | z6 | z6 | z6 | z6 |[M:3/4] B,2 F,2 G,2 | E,3 D, B,,2 | E,3 C, G,2 | F,6 | %48
w: ||||||I have ere|this time heard|ma- ny one|say:|
 B,,2 (C,D,) E,2 | F,3 F, D,2 | E,3 G, F,2 | B,,6 |] %52
w: Take time * while|time is, for|time will a-|way.|

